tools/download-figma-icons/icons/outlined-large/electric-meter.svg

<svg width="64" height="64" viewBox="0 0 64 64" fill="none" xmlns="http://www.w3.org/2000/svg">
<path fill-rule="evenodd" clip-rule="evenodd" d="M50.9999 47.4659C50.9999 48.8719 49.8559 50.0159 48.4499 50.0159H15.55C14.144 50.0159 13 48.8719 13 47.4659V5.54998C13 4.14399 14.144 2.99999 15.55 2.99999H48.4499C49.8559 2.99999 50.9999 4.14399 50.9999 5.54998V47.4659ZM48.4499 0H15.55C12.489 0 9.99997 2.48899 9.99997 5.54998V47.4659C9.99997 50.5269 12.489 53.0158 15.55 53.0158H21.1549V62.4988C21.1549 63.3268 21.8269 63.9988 22.6549 63.9988C23.4829 63.9988 24.1549 63.3268 24.1549 62.4988V53.0158H30.6549V62.4988C30.6549 63.3268 31.3269 63.9988 32.1549 63.9988C32.9829 63.9988 33.6549 63.3268 33.6549 62.4988V53.0158H40.1549V62.4988C40.1549 63.3268 40.8269 63.9988 41.6549 63.9988C42.4829 63.9988 43.1549 63.3268 43.1549 62.4988V53.0158H48.4499C51.5109 53.0158 53.9998 50.5269 53.9998 47.4659V5.54998C53.9998 2.48899 51.5109 0 48.4499 0ZM22.6552 23.1241C23.4832 23.1241 24.1552 22.4521 24.1552 21.6241V16.6242C24.1552 15.7962 23.4832 15.1242 22.6552 15.1242C21.8272 15.1242 21.1552 15.7962 21.1552 16.6242V21.6241C21.1552 22.4521 21.8272 23.1241 22.6552 23.1241ZM33.6552 21.6241C33.6552 22.4521 32.9832 23.1241 32.1552 23.1241C31.3272 23.1241 30.6552 22.4521 30.6552 21.6241V16.6242C30.6552 15.7962 31.3272 15.1242 32.1552 15.1242C32.9832 15.1242 33.6552 15.7962 33.6552 16.6242V21.6241ZM41.6552 23.1241C42.4832 23.1241 43.1552 22.4521 43.1552 21.6241V16.6242C43.1552 15.7962 42.4832 15.1242 41.6552 15.1242C40.8272 15.1242 40.1552 15.7962 40.1552 16.6242V21.6241C40.1552 22.4521 40.8272 23.1241 41.6552 23.1241ZM44.4379 36.7501H38.2499V30.4191H44.4379V36.7501ZM26.0609 36.7501H19.8729V30.4191H26.0609V36.7501ZM35.2499 36.7501H29.0619V30.4191H35.2499V36.7501ZM18.3729 27.4191H45.9379C46.7669 27.4191 47.4379 28.0911 47.4379 28.9191V38.2501C47.4379 39.0781 46.7669 39.7501 45.9379 39.7501H18.3729C17.5449 39.7501 16.873 39.0781 16.873 38.2501V28.9191C16.873 28.0911 17.5449 27.4191 18.3729 27.4191Z" fill="black"/>
</svg>

<svg width="64" height="64" viewBox="0 0 64 64" fill="none" xmlns="http://www.w3.org/2000/svg"><path fill-rule="evenodd" clip-rule="evenodd" d="M51 47.466a2.553 2.553 0 0 1-2.55 2.55h-32.9a2.553 2.553 0 0 1-2.55-2.55V5.55A2.553 2.553 0 0 1 15.55 3h32.9A2.553 2.553 0 0 1 51 5.55v41.916ZM48.45 0h-32.9A5.555 5.555 0 0 0 10 5.55v41.916a5.555 5.555 0 0 0 5.55 5.55h5.605v9.483a1.5 1.5 0 0 0 3 0v-9.483h6.5v9.483a1.5 1.5 0 0 0 3 0v-9.483h6.5v9.483a1.5 1.5 0 0 0 3 0v-9.483h5.295a5.555 5.555 0 0 0 5.55-5.55V5.55A5.555 5.555 0 0 0 48.45 0ZM22.655 23.124a1.5 1.5 0 0 0 1.5-1.5v-5a1.5 1.5 0 0 0-3 0v5a1.5 1.5 0 0 0 1.5 1.5Zm11-1.5a1.5 1.5 0 0 1-3 0v-5a1.5 1.5 0 0 1 3 0v5Zm8 1.5a1.5 1.5 0 0 0 1.5-1.5v-5a1.5 1.5 0 0 0-3 0v5a1.5 1.5 0 0 0 1.5 1.5Zm2.783 13.626H38.25v-6.33h6.188v6.33Zm-18.377 0h-6.188v-6.33h6.188v6.33Zm9.189 0h-6.188v-6.33h6.188v6.33Zm-16.877-9.33h27.565a1.5 1.5 0 0 1 1.5 1.5v9.33a1.5 1.5 0 0 1-1.5 1.5H18.373a1.5 1.5 0 0 1-1.5-1.5v-9.33a1.5 1.5 0 0 1 1.5-1.5Z" fill="currentColor"/></svg>
